src/assets/icons/arrows,fancy,up-right.svg

<svg width="48" height="48" viewBox="0 0 48 48" fill="none" xmlns="http://www.w3.org/2000/svg">
<g clip-path="url(#clip0_37:541)">
<path opacity="0.8" d="M14.8078 40.2635C14.0267 41.0446 12.7604 41.0446 11.9793 40.2635L7.7367 36.0209C6.95565 35.2398 6.95565 33.9735 7.7367 33.1925L24.7073 16.2219C25.4883 15.4408 26.7546 15.4408 27.5357 16.2219L31.7783 20.4645C32.5594 21.2456 32.5594 22.5119 31.7783 23.293L14.8078 40.2635Z" fill="black"/>
<path d="M38.1421 33.3139L38.1421 11.8581C38.1421 10.7535 37.2467 9.85808 36.1421 9.85808L14.6863 9.85808C13.5817 9.85808 12.6863 10.7535 12.6863 11.8581L12.6863 17.7576C12.6863 18.8621 13.5817 19.7576 14.6863 19.7576L26.2426 19.7576C27.3472 19.7576 28.2426 20.653 28.2426 21.7576L28.2426 33.3139C28.2426 34.4185 29.1381 35.3139 30.2426 35.3139H36.1421C37.2467 35.3139 38.1421 34.4185 38.1421 33.3139Z" fill="black"/>
</g>
<defs>
<clipPath id="clip0_37:541">
<rect width="48" height="48" fill="white"/>
</clipPath>
</defs>
</svg>

<svg xmlns="http://www.w3.org/2000/svg" width="48" height="48" fill="none" viewBox="0 0 48 48">
  <g clip-path="url(#clip0_37:541)">
    <path fill="#000" d="M14.808 40.264a2 2 0 01-2.829 0L7.737 36.02a2 2 0 010-2.828l16.97-16.971a2 2 0 012.829 0l4.242 4.242a2 2 0 010 2.829l-16.97 16.97z" opacity=".8"/>
    <path fill="#000" d="M38.142 33.314V11.858a2 2 0 00-2-2H14.686a2 2 0 00-2 2v5.9a2 2 0 002 2h11.557a2 2 0 012 2v11.556a2 2 0 002 2h5.9a2 2 0 002-2z"/>
  </g>
  <defs>
    <clipPath id="clip0_37:541">
      <path fill="#fff" d="M0 0h48v48H0z"/>
    </clipPath>
  </defs>
</svg>
